;FLAVOR:Marlin
;TIME:21607
;Filament used: 14.8703m
;Layer height: 0.2
;MINX:98.316
;MINY:70.085
;MINZ:0.2
;MAXX:201.685
;MAXY:229.915
;MAXZ:24.2
;Generated with Cura_SteamEngine 4.6.1
M140 S65
M105
M190 S65
M104 S221
M105
M109 S221
M82 ;absolute extrusion mode
M201 X500.00 Y500.00 Z100.00 E5000.00 ;Setup machine max acceleration
M203 X500.00 Y500.00 Z10.00 E50.00 ;Setup machine max feedrate
M204 P500.00 R1000.00 T500.00 ;Setup Print/Retract/Travel acceleration
M205 X8.00 Y8.00 Z0.40 E5.00 ;Setup Jerk
M220 S100 ;Reset Feedrate
M221 S100 ;Reset Flowrate

G28 ;Home

G92 E0 ;Reset Extruder
G1 Z2.0 F3000 ;Move Z Axis up
G1 X10.1 Y20 Z0.28 F5000.0 ;Move to start position
G1 X10.1 Y200.0 Z0.28 F1500.0 E15 ;Draw the first line
G1 X10.4 Y200.0 Z0.28 F5000.0 ;Move to side a little
G1 X10.4 Y20 Z0.28 F1500.0 E30 ;Draw the second line
G92 E0 ;Reset Extruder
G1 Z2.0 F3000 ;Move Z Axis up

G92 E0
G92 E0
G1 F2700 E-5
;LAYER_COUNT:121
;LAYER:0
M107
G0 F6000 X178.183 Y73.719 Z0.2
;TYPE:SKIRT
G1 F2700 E0
G1 F1200 X178.957 Y73.782 E0.02583
G1 X179.607 Y73.86 E0.0476
G1 X180.169 Y73.943 E0.0665
G1 X180.446 Y73.992 E0.07585
G1 X181.027 Y74.112 E0.09559
G1 X181.351 Y74.189 E0.10666
G1 X181.806 Y74.308 E0.1223
G1 X182.179 Y74.415 E0.13521
G1 X182.829 Y74.622 E0.1579
G1 X183.44 Y74.842 E0.1795
G1 X184.102 Y75.116 E0.20333
G1 X184.566 Y75.328 E0.2203
G1 X185.191 Y75.64 E0.24353
G1 X185.838 Y75.991 E0.26801
G1 X186.698 Y76.515 E0.30151
G1 X187.08 Y76.774 E0.31686
G1 X187.417 Y77.012 E0.33058
G1 X187.685 Y77.21 E0.34166
G1 X188.294 Y77.697 E0.3676
G1 X188.67 Y78.022 E0.38413
G1 X189.056 Y78.371 E0.40144
G1 X189.54 Y78.847 E0.42401
G1 X189.833 Y79.155 E0.43815
G1 X190.131 Y79.482 E0.45287
G1 X190.369 Y79.755 E0.46491
G1 X190.846 Y80.344 E0.49012
G1 X191.156 Y80.758 E0.50732
G1 X191.501 Y81.245 E0.52717
G1 X191.762 Y81.64 E0.54292
G1 X192.048 Y82.104 E0.56105
G1 X192.195 Y82.355 E0.57072
G1 X192.452 Y82.822 E0.58845
G1 X192.57 Y83.05 E0.59699
G1 X192.854 Y83.636 E0.61865
G1 X193.029 Y84.026 E0.63287
G1 X193.122 Y84.246 E0.64081
G1 X193.373 Y84.903 E0.66421
G1 X193.661 Y85.741 E0.69368
G1 X193.886 Y86.488 E0.71963
G1 X193.95 Y86.734 E0.72808
G1 X194.068 Y87.24 E0.74536
G1 X194.151 Y87.642 E0.75901
G1 X194.304 Y88.619 E0.7919
G1 X194.391 Y89.432 E0.8191
G1 X194.447 Y90.315 E0.84853
G1 X194.469 Y91.526 E0.88881
G1 X194.47 Y139.426 E2.48197
G1 X194.507 Y142.032 E2.56866
G1 X194.616 Y144.598 E2.65408
G1 X194.792 Y147.089 E2.73714
G1 X195.049 Y149.665 E2.82324
G1 X195.281 Y151.538 E2.88601
G1 X196.159 Y158.038 E3.10417
G1 X196.245 Y158.745 E3.12786
G1 X196.318 Y159.782 E3.16243
G1 X196.33 Y160.499 E3.18628
G1 X196.33 Y184.534 E3.98569
G1 X196.367 Y187.14 E4.07237
G1 X196.476 Y189.705 E4.15776
G1 X196.654 Y192.212 E4.24136
G1 X196.905 Y194.753 E4.32628
G1 X197.226 Y197.259 E4.41031
G1 X197.62 Y199.765 E4.49469
G1 X197.889 Y201.265 E4.54537
G1 X198.009 Y202.16 E4.57541
G1 X198.041 Y202.66 E4.59207
G1 X198.077 Y203.561 E4.62206
G1 X198.085 Y203.972 E4.63573
G1 X198.08 Y215.441 E5.0172
G1 X198.071 Y216.111 E5.03948
G1 X198.019 Y217.013 E5.06953
G1 X197.887 Y217.906 E5.09956
G1 X197.677 Y218.784 E5.12958
G1 X197.39 Y219.641 E5.15964
G1 X197.029 Y220.468 E5.18965
G1 X196.595 Y221.261 E5.21972
G1 X196.093 Y222.011 E5.24974
G1 X195.48 Y222.769 E5.28216
G1 X195.363 Y222.9 E5.288
G1 X194.732 Y223.546 E5.31804
G1 X194.046 Y224.134 E5.34809
G1 X193.311 Y224.659 E5.37813
G1 X192.533 Y225.117 E5.40816
G1 X191.717 Y225.504 E5.4382
G1 X190.87 Y225.818 E5.46824
G1 X189.999 Y226.055 E5.49827
G1 X189.11 Y226.215 E5.52831
G1 X187.938 Y226.303 E5.5674
G1 X187.191 Y226.315 E5.59225
G1 X185.781 Y226.314 E5.63914
G1 X113.984 Y226.315 E8.02712
G1 X112.786 Y226.313 E8.06697
G1 X112.113 Y226.304 E8.08935
G1 X111.211 Y226.252 E8.1194
G1 X110.318 Y226.12 E8.14943
G1 X109.439 Y225.91 E8.17949
G1 X108.583 Y225.623 E8.20952
G1 X107.755 Y225.262 E8.23956
G1 X106.963 Y224.828 E8.2696
G1 X106.212 Y224.327 E8.29962
G1 X105.509 Y223.76 E8.32966
G1 X104.783 Y223.054 E8.36334
G1 X104.662 Y222.924 E8.36925
G1 X104.076 Y222.237 E8.39928
G1 X103.554 Y221.5 E8.42932
G1 X103.099 Y220.72 E8.45936
G1 X102.715 Y219.903 E8.48938
G1 X102.404 Y219.055 E8.51942
G1 X102.17 Y218.182 E8.54948
G1 X102.014 Y217.293 E8.5795
G1 X101.929 Y216.138 E8.61802
G1 X101.919 Y215.415 E8.64207
G1 X101.916 Y203.739 E9.03042
G1 X101.925 Y203.075 E9.05251
G1 X101.977 Y202.173 E9.08256
G1 X102.09 Y201.381 E9.10916
G1 X102.144 Y201.087 E9.11911
G1 X102.593 Y198.463 E9.20765
G1 X102.947 Y195.971 E9.29137
G1 X103.23 Y193.472 E9.37501
G1 X103.448 Y190.899 E9.4609
G1 X103.588 Y188.416 E9.54362
G1 X103.67 Y184.463 E9.67512
G1 X103.67 Y91.439 E12.76911
G1 X103.686 Y90.366 E12.8048
G1 X103.701 Y89.987 E12.81742
G1 X103.759 Y89.229 E12.8427
G1 X103.81 Y88.784 E12.8576
G1 X103.915 Y88.085 E12.88111
G1 X103.994 Y87.659 E12.89552
G1 X104.075 Y87.268 E12.9088
G1 X104.168 Y86.857 E12.92282
G1 X104.319 Y86.271 E12.94295
G1 X104.383 Y86.05 E12.9506
G1 X104.512 Y85.636 E12.96502
G1 X104.742 Y84.952 E12.98902
G1 X105.135 Y83.958 E13.02457
G1 X105.227 Y83.757 E13.03193
G1 X105.496 Y83.213 E13.05211
G1 X105.898 Y82.457 E13.08059
G1 X106.208 Y81.915 E13.10136
G1 X106.349 Y81.685 E13.11033
G1 X106.713 Y81.132 E13.13235
G1 X107.181 Y80.487 E13.15885
G1 X107.509 Y80.073 E13.17642
G1 X107.65 Y79.904 E13.18374
G1 X107.861 Y79.659 E13.1945
G1 X108.159 Y79.324 E13.20941
G1 X108.428 Y79.033 E13.22259
G1 X108.703 Y78.747 E13.23579
G1 X109.3 Y78.174 E13.26331
G1 X109.67 Y77.847 E13.27973
G1 X110.344 Y77.301 E13.30858
G1 X110.647 Y77.076 E13.32113
G1 X111.034 Y76.802 E13.3369
G1 X111.636 Y76.397 E13.36104
G1 X112.653 Y75.795 E13.40034
G1 X113.312 Y75.455 E13.42501
G1 X114.15 Y75.07 E13.45568
G1 X114.763 Y74.821 E13.47769
G1 X115.868 Y74.444 E13.51652
G1 X116.576 Y74.247 E13.54096
G1 X117.224 Y74.089 E13.56315
G1 X117.607 Y74.009 E13.57616
G1 X118.268 Y73.894 E13.59848
G1 X118.587 Y73.849 E13.60919
G1 X119.417 Y73.766 E13.63693
G1 X120.341 Y73.712 E13.66772
G1 X120.756 Y73.697 E13.68153
G1 X121.502 Y73.685 E13.70635
G1 X176.548 Y73.685 E15.53718
G1 X176.696 Y73.686 E15.54211
G1 X178.183 Y73.719 E15.59158
G0 F6000 X178.2 Y73.319
G1 F1200 X179.005 Y73.385 E15.61844
G1 X179.655 Y73.463 E15.64021
G1 X180.238 Y73.549 E15.65981
G1 X180.515 Y73.598 E15.66917
G1 X181.12 Y73.723 E15.68972
G1 X181.444 Y73.8 E15.70079
G1 X181.916 Y73.924 E15.71703
G1 X182.289 Y74.031 E15.72993
G1 X182.684 Y74.153 E15.74368
G1 X182.954 Y74.242 E15.75314
G1 X183.353 Y74.382 E15.7672
G1 X183.58 Y74.467 E15.77526
G1 X184.268 Y74.753 E15.80005
G1 X184.732 Y74.965 E15.81701
G1 X185.382 Y75.289 E15.84117
G1 X186.029 Y75.64 E15.86565
G1 X186.923 Y76.183 E15.90044
G1 X187.305 Y76.442 E15.91579
G1 X187.655 Y76.69 E15.93006
G1 X187.923 Y76.888 E15.94114
G1 X188.556 Y77.395 E15.96811
G1 X189.177 Y77.938 E15.99555
G1 X189.327 Y78.076 E16.00233
G1 X189.83 Y78.571 E16.0258
G1 X190.123 Y78.879 E16.03994
G1 X190.433 Y79.219 E16.05525
G1 X190.671 Y79.492 E16.06729
G1 X191.166 Y80.105 E16.0935
G1 X191.476 Y80.519 E16.1107
G1 X191.83 Y81.017 E16.13102
G1 X192.101 Y81.428 E16.1474
G1 X192.393 Y81.902 E16.16591
G1 X192.54 Y82.153 E16.17559
G1 X192.807 Y82.638 E16.194
G1 X192.925 Y82.866 E16.20254
G1 X193.093 Y83.205 E16.21512
G1 X193.216 Y83.465 E16.22469
G1 X193.49 Y84.091 E16.24742
G1 X193.752 Y84.773 E16.27172
G1 X194.04 Y85.611 E16.30119
G1 X194.274 Y86.387 E16.32815
G1 X194.338 Y86.633 E16.3366
G1 X194.46 Y87.159 E16.35456
G1 X194.543 Y87.561 E16.36821
G1 X194.702 Y88.576 E16.40238
G1 X194.789 Y89.389 E16.42958
G1 X194.847 Y90.307 E16.46017
G1 X194.869 Y91.526 E16.50072
G1 X194.87 Y139.42 E18.09368
G1 X194.907 Y142.045 E18.181
G1 X195.014 Y144.554 E18.26453
G1 X195.191 Y147.058 E18.34802
G1 X195.446 Y149.616 E18.43352
G1 X195.687 Y151.56 E18.49867
G1 X196.556 Y157.99 E18.71448
G1 X196.642 Y158.697 E18.73817
G1 X196.718 Y159.774 E18.77408
G1 X196.73 Y160.499 E18.79819
G1 X196.73 Y184.528 E19.5974
G1 X196.767 Y187.153 E19.68472
G1 X196.874 Y189.661 E19.76821
G1 X197.052 Y192.181 E19.85223
G1 X197.301 Y194.696 E19.93629
G1 X197.62 Y197.185 E20.01975
G1 X198.025 Y199.765 E20.10662
G1 X198.282 Y201.194 E20.15491
G1 X198.405 Y202.107 E20.18555
G1 X198.441 Y202.644 E20.20345
G1 X198.477 Y203.545 E20.23344
G1 X198.485 Y203.972 E20.24765
G1 X198.48 Y215.446 E20.62927
G1 X198.471 Y216.116 E20.65156
G1 X198.419 Y217.036 E20.68221
G1 X198.287 Y217.947 E20.71282
G1 X198.076 Y218.843 E20.74344
G1 X197.789 Y219.718 E20.77407
G1 X197.427 Y220.564 E20.80467
G1 X196.992 Y221.376 E20.83531
G1 X196.489 Y222.147 E20.86593
G1 X195.778 Y223.035 E20.90377
G1 X195.661 Y223.166 E20.90961
G1 X195.018 Y223.825 E20.94023
G1 X194.321 Y224.426 E20.97084
G1 X193.574 Y224.965 E21.00148
G1 X192.783 Y225.436 E21.0321
G1 X191.955 Y225.838 E21.06271
G1 X191.094 Y226.165 E21.09335
G1 X190.209 Y226.417 E21.12395
G1 X189.305 Y226.591 E21.15457
G1 X187.945 Y226.703 E21.19996
G1 X187.19 Y226.715 E21.22507
G1 X185.78 Y226.714 E21.27197
G1 X113.984 Y226.715 E23.65991
G1 X112.78 Y226.713 E23.69996
G1 X112.107 Y226.704 E23.72234
G1 X111.188 Y226.652 E23.75296
G1 X110.277 Y226.52 E23.78358
G1 X109.381 Y226.31 E23.81418
G1 X108.506 Y226.022 E23.84482
G1 X107.66 Y225.66 E23.87543
G1 X106.848 Y225.226 E23.90605
G1 X106.077 Y224.723 E23.93667
G1 X105.352 Y224.155 E23.9673
G1 X104.49 Y223.327 E24.00706
G1 X104.369 Y223.197 E24.01296
G1 X103.772 Y222.496 E24.04359
G1 X103.237 Y221.747 E24.0742
G1 X102.77 Y220.953 E24.10484
G1 X102.373 Y220.123 E24.13544
G1 X102.05 Y219.261 E24.16606
G1 X101.803 Y218.374 E24.19668
G1 X101.634 Y217.469 E24.2273
G1 X101.529 Y216.144 E24.27151
G1 X101.519 Y215.415 E24.29576
G1 X101.516 Y203.733 E24.6843
G1 X101.525 Y203.069 E24.70639
G1 X101.577 Y202.15 E24.73701
G1 X101.696 Y201.309 E24.76526
G1 X101.763 Y200.942 E24.77767
G1 X102.197 Y198.405 E24.86327
G1 X102.547 Y195.941 E24.94605
G1 X102.835 Y193.394 E25.0313
G1 X103.049 Y190.878 E25.11529
G1 X103.188 Y188.413 E25.1974
G1 X103.27 Y184.457 E25.32901
G1 X103.27 Y91.439 E28.4228
G1 X103.286 Y90.35 E28.45902
G1 X103.301 Y89.971 E28.47164
G1 X103.362 Y89.183 E28.49793
G1 X103.413 Y88.738 E28.51282
G1 X103.522 Y88.012 E28.53724
G1 X103.601 Y87.586 E28.55165
G1 X103.684 Y87.18 E28.56543
G1 X103.777 Y86.769 E28.57945
G1 X103.934 Y86.159 E28.6004
G1 X103.998 Y85.938 E28.60805
G1 X104.133 Y85.509 E28.62301
G1 X104.363 Y84.825 E28.64701
G1 X104.772 Y83.791 E28.684
G1 X104.864 Y83.59 E28.69135
G1 X105.143 Y83.025 E28.71231
G1 X105.545 Y82.269 E28.74078
G1 X105.867 Y81.706 E28.76236
G1 X106.008 Y81.476 E28.77133
G1 X106.386 Y80.902 E28.79419
G1 X106.861 Y80.247 E28.8211
G1 X107.202 Y79.816 E28.83938
G1 X107.343 Y79.647 E28.8467
G1 X107.562 Y79.393 E28.85785
G1 X107.86 Y79.058 E28.87277
G1 X108.139 Y78.756 E28.88644
G1 X108.414 Y78.47 E28.89964
G1 X109.035 Y77.874 E28.92827
G1 X109.405 Y77.547 E28.94469
G1 X110.106 Y76.98 E28.97468
G1 X110.409 Y76.755 E28.98723
G1 X110.811 Y76.47 E29.00362
G1 X111.413 Y76.065 E29.02775
G1 X112.47 Y75.44 E29.06859
G1 X113.129 Y75.1 E29.09326
G1 X114 Y74.699 E29.12515
G1 X114.613 Y74.45 E29.14716
G1 X115.761 Y74.059 E29.18749
G1 X116.469 Y73.862 E29.21193
G1 X117.143 Y73.698 E29.23501
G1 X117.526 Y73.618 E29.24802
G1 X118.212 Y73.498 E29.27118
G1 X118.531 Y73.453 E29.2819
G1 X119.394 Y73.367 E29.31074
G1 X120.318 Y73.313 E29.34153
G1 X120.749 Y73.297 E29.35587
G1 X121.502 Y73.285 E29.38092
G1 X176.548 Y73.285 E31.21176
G1 X176.702 Y73.286 E31.21688
G1 X178.2 Y73.319 E31.26672
G0 F6000 X178.218 Y72.919
G1 F1200 X179.053 Y72.987 E31.29458
G1 X179.703 Y73.065 E31.31635
G1 X180.308 Y73.155 E31.3367
G1 X180.585 Y73.204 E31.34605
G1 X181.212 Y73.334 E31.36735
G1 X181.536 Y73.411 E31.37843
G1 X182.026 Y73.539 E31.39527
G1 X182.399 Y73.646 E31.40818
G1 X182.81 Y73.773 E31.42249
G1 X183.08 Y73.862 E31.43194
G1 X183.72 Y74.093 E31.45457
G1 X184.434 Y74.389 E31.48028
G1 X184.898 Y74.601 E31.49725
G1 X185.572 Y74.937 E31.5223
G1 X186.219 Y75.288 E31.54678
G1 X187.147 Y75.852 E31.5829
G1 X187.529 Y76.111 E31.59825
G1 X187.892 Y76.369 E31.61306
G1 X188.16 Y76.567 E31.62414
G1 X188.817 Y77.092 E31.65211
G1 X189.448 Y77.644 E31.68
G1 X189.598 Y77.782 E31.68678
G1 X190.12 Y78.295 E31.71112
G1 X190.413 Y78.603 E31.72526
G1 X190.735 Y78.957 E31.74118
G1 X190.973 Y79.23 E31.75322
G1 X191.486 Y79.865 E31.78037
G1 X191.796 Y80.279 E31.79758
G1 X192.159 Y80.789 E31.8184
G1 X192.44 Y81.216 E31.8354
G1 X192.738 Y81.7 E31.8543
G1 X192.885 Y81.951 E31.86398
G1 X193.162 Y82.454 E31.88308
G1 X193.28 Y82.682 E31.89161
G1 X193.577 Y83.294 E31.91424
G1 X193.766 Y83.715 E31.92959
G1 X193.859 Y83.935 E31.93753
G1 X194.13 Y84.643 E31.96275
G1 X194.418 Y85.481 E31.99222
G1 X194.661 Y86.286 E32.02019
G1 X194.725 Y86.532 E32.02864
G1 X194.852 Y87.078 E32.04729
G1 X194.935 Y87.48 E32.06094
G1 X195.1 Y88.534 E32.09642
G1 X195.187 Y89.347 E32.12362
G1 X195.247 Y90.299 E32.15534
G1 X195.269 Y91.526 E32.19616
G1 X195.27 Y139.414 E33.78892
G1 X195.307 Y142.023 E33.87571
G1 X195.414 Y144.545 E33.95966
G1 X195.59 Y147.023 E34.04229
G1 X195.843 Y149.567 E34.12732
G1 X196.074 Y151.43 E34.18976
G1 X196.954 Y157.942 E34.40832
G1 X197.04 Y158.649 E34.43201
G1 X197.118 Y159.766 E34.46925
G1 X197.13 Y160.499 E34.49363
G1 X197.13 Y184.522 E35.29264
G1 X197.167 Y187.13 E35.37939
G1 X197.274 Y189.651 E35.46331
G1 X197.451 Y192.146 E35.54651
G1 X197.699 Y194.646 E35.63006
G1 X198.018 Y197.139 E35.71366
G1 X198.417 Y199.683 E35.79931
G1 X198.676 Y201.124 E35.848
G1 X198.802 Y202.053 E35.87918
G1 X198.84 Y202.628 E35.89835
G1 X198.876 Y203.529 E35.92834
G1 X198.885 Y203.972 E35.94308
G1 X198.88 Y215.452 E36.32491
G1 X198.871 Y216.122 E36.34719
G1 X198.818 Y217.058 E36.37837
G1 X198.686 Y217.987 E36.40958
G1 X198.476 Y218.901 E36.44077
G1 X198.188 Y219.793 E36.47195
G1 X197.825 Y220.658 E36.50315
G1 X197.39 Y221.489 E36.53435
G1 X196.885 Y222.28 E36.56556
G1 X196.076 Y223.301 E36.60889
G1 X195.959 Y223.432 E36.61473
G1 X195.305 Y224.105 E36.64594
G1 X194.596 Y224.719 E36.67714
G1 X193.838 Y225.27 E36.7083
G1 X193.035 Y225.755 E36.73951
G1 X192.194 Y226.17 E36.7707
G1 X191.32 Y226.511 E36.8019
G1 X190.421 Y226.777 E36.83308
G1 X189.502 Y226.965 E36.86428
G1 X188.571 Y227.075 E36.89546
G1 X187.952 Y227.103 E36.91607
G1 X187.19 Y227.115 E36.94142
G1 X185.78 Y227.114 E36.98832
G1 X113.984 Y227.115 E39.37626
G1 X112.775 Y227.113 E39.41647
G1 X112.102 Y227.104 E39.43886
G1 X111.166 Y227.052 E39.47004
G1 X110.237 Y226.919 E39.50125
G1 X109.323 Y226.709 E39.53244
G1 X108.43 Y226.421 E39.56365
G1 X107.566 Y226.058 E39.59482
G1 X106.735 Y225.623 E39.62602
G1 X105.944 Y225.119 E39.65721
G1 X105.199 Y224.549 E39.68841
G1 X104.197 Y223.599 E39.73434
G1 X104.076 Y223.469 E39.74025
G1 X103.467 Y222.756 E39.77143
G1 X102.921 Y221.994 E39.80261
G1 X102.442 Y221.188 E39.8338
G1 X102.033 Y220.344 E39.86499
G1 X101.697 Y219.468 E39.8962
G1 X101.438 Y218.567 E39.92738
G1 X101.256 Y217.647 E39.95857
G1 X101.153 Y216.714 E39.98979
G1 X101.129 Y216.151 E40.00853
G1 X101.119 Y215.415 E40.03301
G1 X101.116 Y203.728 E40.42172
G1 X101.125 Y203.064 E40.44381
G1 X101.178 Y202.128 E40.47499
G1 X101.303 Y201.237 E40.50492
G1 X101.37 Y200.87 E40.51733
G1 X101.799 Y198.358 E40.60208
G1 X102.153 Y195.872 E40.6856
G1 X102.434 Y193.386 E40.76881
G1 X102.649 Y190.856 E40.85327
G1 X102.788 Y188.382 E40.93568
G1 X102.87 Y184.451 E41.06646
G1 X102.87 Y91.439 E44.16005
G1 X102.887 Y90.334 E44.1968
G1 X102.902 Y89.955 E44.20942
G1 X102.965 Y89.138 E44.23667
G1 X103.016 Y88.693 E44.25157
G1 X103.128 Y87.939 E44.27692
G1 X103.207 Y87.513 E44.29133
G1 X103.294 Y87.091 E44.30567
G1 X103.387 Y86.68 E44.31968
G1 X103.55 Y86.048 E44.34139
G1 X103.614 Y85.827 E44.34904
G1 X103.754 Y85.381 E44.36459
G1 X103.984 Y84.697 E44.38859
G1 X104.408 Y83.625 E44.42693
G1 X104.5 Y83.424 E44.43429
G1 X104.79 Y82.838 E44.45603
G1 X105.192 Y82.082 E44.48451
G1 X105.526 Y81.497 E44.50692
G1 X105.667 Y81.267 E44.51589
G1 X106.059 Y80.671 E44.53962
G1 X106.541 Y80.007 E44.56691
G1 X106.895 Y79.56 E44.58587
G1 X107.036 Y79.391 E44.59319
G1 X107.263 Y79.127 E44.60477
G1 X107.561 Y78.792 E44.61968
G1 X107.851 Y78.479 E44.63388
