;FLAVOR:Marlin
;TIME:1316
;Filament used: 0.714343m
;Layer height: 0.2
;MINX:123.195
;MINY:115.411
;MINZ:0.2
;MAXX:167.632
;MAXY:183.908
;MAXZ:5.8
;Generated with Cura_SteamEngine 4.6.1
M140 S65
M105
M190 S65
M104 S221
M105
M109 S221
M82 ;absolute extrusion mode
M201 X500.00 Y500.00 Z100.00 E5000.00 ;Setup machine max acceleration
M203 X500.00 Y500.00 Z10.00 E50.00 ;Setup machine max feedrate
M204 P500.00 R1000.00 T500.00 ;Setup Print/Retract/Travel acceleration
M205 X8.00 Y8.00 Z0.40 E5.00 ;Setup Jerk
M220 S100 ;Reset Feedrate
M221 S100 ;Reset Flowrate

G28 ;Home

G92 E0 ;Reset Extruder
G1 Z2.0 F3000 ;Move Z Axis up
G1 X10.1 Y20 Z0.28 F5000.0 ;Move to start position
G1 X10.1 Y200.0 Z0.28 F1500.0 E15 ;Draw the first line
G1 X10.4 Y200.0 Z0.28 F5000.0 ;Move to side a little
G1 X10.4 Y20 Z0.28 F1500.0 E30 ;Draw the second line
G92 E0 ;Reset Extruder
G1 Z2.0 F3000 ;Move Z Axis up

G92 E0
G92 E0
G1 F2700 E-5
;LAYER_COUNT:29
;LAYER:0
M107
G0 F6000 X144.156 Y119.192 Z0.2
;TYPE:SKIRT
G1 F2700 E0
G1 F1200 X145.103 Y119.306 E0.03172
G1 X147.588 Y119.534 E0.11472
G1 X149.205 Y119.633 E0.16861
G1 X150.382 Y119.727 E0.20788
G1 X150.994 Y119.8 E0.22838
G1 X151.195 Y119.83 E0.23514
G1 X151.883 Y119.957 E0.25841
G1 X152.11 Y120.007 E0.26614
G1 X152.967 Y120.235 E0.29563
G1 X153.235 Y120.319 E0.30497
G1 X154.068 Y120.62 E0.33443
G1 X154.272 Y120.704 E0.34177
G1 X154.911 Y120.993 E0.3651
G1 X155.099 Y121.086 E0.37207
G1 X155.89 Y121.522 E0.40211
G1 X156.435 Y121.88 E0.4238
G1 X156.995 Y122.273 E0.44656
G1 X157.711 Y122.824 E0.4766
G1 X158.301 Y123.363 E0.50318
G1 X158.532 Y123.591 E0.51398
G1 X159.16 Y124.269 E0.54472
G1 X159.312 Y124.449 E0.55255
G1 X159.826 Y125.11 E0.5804
G1 X159.95 Y125.284 E0.58751
G1 X160.318 Y125.839 E0.60966
G1 X160.425 Y126.012 E0.61642
G1 X161.034 Y127.152 E0.65941
G1 X161.257 Y127.642 E0.67732
G1 X161.594 Y128.48 E0.70736
G1 X161.907 Y129.553 E0.74453
G1 X162.057 Y130.197 E0.76653
G1 X162.223 Y131.085 E0.79657
G1 X162.32 Y132.268 E0.83605
G1 X162.353 Y133.768 E0.88595
G1 X162.353 Y146.504 E1.30956
G1 X162.39 Y149.11 E1.39624
G1 X162.499 Y151.676 E1.48166
G1 X162.677 Y154.183 E1.56526
G1 X162.925 Y156.692 E1.64911
G1 X163.25 Y159.23 E1.73422
G1 X163.8 Y162.629 E1.84874
G1 X163.873 Y163.034 E1.86242
G1 X163.995 Y163.929 E1.89247
G1 X164.037 Y164.831 E1.9225
G1 X163.999 Y165.733 E1.95253
G1 X163.882 Y166.629 E1.98258
G1 X163.685 Y167.51 E2.01261
G1 X163.49 Y168.149 E2.03483
G1 X163.288 Y168.741 E2.05563
G1 X162.474 Y171.232 E2.1428
G1 X162.312 Y171.777 E2.16171
G1 X161.898 Y173.119 E2.20842
G1 X161.594 Y173.969 E2.23844
G1 X161.215 Y174.789 E2.26849
G1 X160.766 Y175.573 E2.29854
G1 X160.249 Y176.313 E2.32856
G1 X159.669 Y177.005 E2.35859
G1 X159.03 Y177.643 E2.38863
G1 X158.337 Y178.222 E2.41866
G1 X157.595 Y178.738 E2.44872
G1 X156.811 Y179.185 E2.47874
G1 X155.99 Y179.562 E2.50879
G1 X155.139 Y179.865 E2.53883
G1 X154.265 Y180.091 E2.56886
G1 X153.374 Y180.238 E2.59889
G1 X152.473 Y180.307 E2.62895
G1 X151.377 Y180.283 E2.66541
G1 X150.705 Y180.229 E2.68783
G1 X148.026 Y179.965 E2.77737
G1 X145.499 Y179.789 E2.86162
G1 X142.969 Y179.684 E2.94584
G1 X140.431 Y179.651 E3.03026
G1 X139.677 Y179.661 E3.05534
G1 X138.695 Y179.662 E3.088
G1 X137.793 Y179.623 E3.11803
G1 X136.898 Y179.504 E3.14806
G1 X136.017 Y179.307 E3.17809
G1 X135.156 Y179.032 E3.20815
G1 X134.324 Y178.683 E3.23816
G1 X133.525 Y178.261 E3.26821
G1 X132.767 Y177.77 E3.29825
G1 X132.055 Y177.214 E3.3283
G1 X131.396 Y176.597 E3.35832
G1 X130.793 Y175.924 E3.38838
G1 X130.253 Y175.201 E3.41839
G1 X129.778 Y174.432 E3.44845
G1 X129.373 Y173.625 E3.47848
G1 X128.934 Y172.455 E3.52005
G1 X128.41 Y170.734 E3.57988
G1 X127.568 Y168.19 E3.66901
G1 X127.288 Y167.322 E3.69935
G1 X127.049 Y166.452 E3.72935
G1 X126.888 Y165.563 E3.7594
G1 X126.806 Y164.663 E3.78946
G1 X126.804 Y163.76 E3.8195
G1 X126.943 Y162.459 E3.86301
G1 X127.182 Y161.074 E3.90976
G1 X127.593 Y158.445 E3.99826
G1 X127.905 Y155.991 E4.08054
G1 X128.159 Y153.417 E4.16657
G1 X128.336 Y150.896 E4.25062
G1 X128.443 Y148.355 E4.33521
G1 X128.478 Y145.807 E4.41997
G1 X128.479 Y132.837 E4.85135
G1 X128.496 Y131.812 E4.88545
G1 X128.554 Y130.882 E4.91644
G1 X128.58 Y130.642 E4.92447
G1 X128.792 Y129.407 E4.96614
G1 X128.894 Y128.973 E4.98097
G1 X129.139 Y128.104 E5.011
G1 X129.348 Y127.53 E5.03132
G1 X129.517 Y127.106 E5.0465
G1 X129.888 Y126.283 E5.07653
G1 X130.143 Y125.809 E5.09443
G1 X130.35 Y125.448 E5.10827
G1 X130.834 Y124.685 E5.13832
G1 X131.213 Y124.176 E5.15943
G1 X131.511 Y123.801 E5.17536
G1 X132.104 Y123.12 E5.20539
G1 X132.883 Y122.382 E5.24108
G1 X133.389 Y121.951 E5.26319
G1 X134.102 Y121.396 E5.29324
G1 X135.22 Y120.707 E5.33692
G1 X135.785 Y120.407 E5.3582
G1 X136.6 Y120.019 E5.38822
G1 X137.405 Y119.719 E5.4168
G1 X137.779 Y119.597 E5.42988
G1 X138.649 Y119.355 E5.45991
G1 X139.207 Y119.243 E5.47884
G1 X139.653 Y119.166 E5.4939
G1 X140.549 Y119.052 E5.52394
G1 X141.097 Y119.021 E5.54219
G1 X141.517 Y119.009 E5.55617
G1 X142.827 Y119.056 E5.59977
G1 X144.156 Y119.192 E5.6442
G0 F6000 X144.204 Y118.794
G1 F1200 X145.155 Y118.909 E5.67606
G1 X147.647 Y119.137 E5.75929
G1 X149.235 Y119.234 E5.81221
G1 X150.417 Y119.329 E5.85165
G1 X151.053 Y119.404 E5.87295
G1 X151.254 Y119.434 E5.87971
G1 X151.969 Y119.566 E5.90389
G1 X152.196 Y119.616 E5.91162
G1 X153.086 Y119.853 E5.94226
G1 X153.354 Y119.937 E5.9516
G1 X154.22 Y120.25 E5.98222
G1 X154.424 Y120.334 E5.98956
G1 X155.088 Y120.635 E6.01381
G1 X155.276 Y120.728 E6.02079
G1 X156.083 Y121.172 E6.05142
G1 X156.665 Y121.552 E6.07454
G1 X157.225 Y121.945 E6.09729
G1 X157.955 Y122.507 E6.12793
G1 X158.582 Y123.078 E6.15614
G1 X158.813 Y123.306 E6.16694
G1 X159.466 Y124.011 E6.1989
G1 X159.618 Y124.191 E6.20673
G1 X160.151 Y124.878 E6.23565
G1 X160.275 Y125.052 E6.24276
G1 X160.658 Y125.628 E6.26577
G1 X160.765 Y125.801 E6.27253
G1 X161.398 Y126.986 E6.31722
G1 X161.621 Y127.476 E6.33512
G1 X161.965 Y128.33 E6.36574
G1 X162.297 Y129.462 E6.40498
G1 X162.447 Y130.106 E6.42697
G1 X162.616 Y131.011 E6.45759
G1 X162.72 Y132.258 E6.49921
G1 X162.753 Y133.768 E6.54945
G1 X162.753 Y146.498 E6.97285
G1 X162.79 Y149.123 E7.06017
G1 X162.897 Y151.632 E7.14369
G1 X163.075 Y154.148 E7.22758
G1 X163.325 Y156.672 E7.31194
G1 X163.642 Y159.146 E7.3949
G1 X164.192 Y162.551 E7.50962
G1 X164.267 Y162.963 E7.52355
G1 X164.392 Y163.875 E7.55416
G1 X164.437 Y164.794 E7.58477
G1 X164.402 Y165.714 E7.61539
G1 X164.288 Y166.628 E7.64602
G1 X164.094 Y167.528 E7.67665
G1 X163.869 Y168.278 E7.70269
G1 X163.652 Y168.913 E7.72501
G1 X162.855 Y171.356 E7.81048
G1 X162.694 Y171.895 E7.82919
G1 X162.28 Y173.237 E7.8759
G1 X161.971 Y174.104 E7.90651
G1 X161.587 Y174.941 E7.93714
G1 X161.133 Y175.741 E7.96773
G1 X160.61 Y176.5 E7.99839
G1 X160.024 Y177.21 E8.02901
G1 X159.379 Y177.866 E8.05961
G1 X158.678 Y178.464 E8.09026
G1 X157.929 Y178.999 E8.12087
G1 X157.136 Y179.467 E8.1515
G1 X156.306 Y179.864 E8.1821
G1 X155.444 Y180.188 E8.21273
G1 X154.557 Y180.435 E8.24335
G1 X153.652 Y180.605 E8.27398
G1 X152.736 Y180.696 E8.30459
G1 X151.816 Y180.707 E8.33519
G1 X151.347 Y180.681 E8.35082
G1 X150.666 Y180.627 E8.37354
G1 X147.993 Y180.364 E8.46287
G1 X145.491 Y180.189 E8.54629
G1 X142.948 Y180.084 E8.63095
G1 X140.431 Y180.051 E8.71467
G1 X139.678 Y180.061 E8.73972
G1 X138.696 Y180.062 E8.77238
G1 X137.776 Y180.023 E8.803
G1 X136.863 Y179.904 E8.83363
G1 X135.964 Y179.707 E8.86424
G1 X135.085 Y179.432 E8.89487
G1 X134.234 Y179.082 E8.92548
G1 X133.416 Y178.659 E8.9561
G1 X132.637 Y178.168 E8.98673
G1 X131.905 Y177.61 E9.01734
G1 X131.223 Y176.991 E9.04798
G1 X130.598 Y176.315 E9.0786
G1 X130.034 Y175.587 E9.10923
G1 X129.535 Y174.814 E9.13983
G1 X129.105 Y174 E9.17045
G1 X128.748 Y173.151 E9.20108
G1 X128.552 Y172.572 E9.22141
G1 X128.038 Y170.882 E9.28017
G1 X127.187 Y168.313 E9.37018
G1 X126.907 Y167.445 E9.40051
G1 X126.663 Y166.558 E9.43111
G1 X126.496 Y165.652 E9.46175
G1 X126.409 Y164.736 E9.49235
G1 X126.402 Y163.815 E9.52299
G1 X126.474 Y162.897 E9.55361
G1 X126.549 Y162.391 E9.57063
G1 X126.789 Y161 E9.61758
G1 X127.194 Y158.409 E9.7048
G1 X127.509 Y155.933 E9.78782
G1 X127.76 Y153.386 E9.87294
G1 X127.936 Y150.887 E9.95626
G1 X128.043 Y148.333 E10.04128
G1 X128.078 Y145.801 E10.12551
G1 X128.079 Y132.83 E10.55692
G1 X128.096 Y131.805 E10.59102
G1 X128.157 Y130.839 E10.62321
G1 X128.183 Y130.599 E10.63124
G1 X128.402 Y129.316 E10.67453
G1 X128.504 Y128.882 E10.68936
G1 X128.754 Y127.996 E10.71998
G1 X128.976 Y127.382 E10.74169
G1 X129.145 Y126.958 E10.75688
G1 X129.523 Y126.119 E10.78748
G1 X129.796 Y125.61 E10.80669
G1 X130.003 Y125.249 E10.82053
G1 X130.496 Y124.471 E10.85117
G1 X130.9 Y123.927 E10.87371
G1 X131.198 Y123.552 E10.88964
G1 X131.802 Y122.857 E10.92026
G1 X132.624 Y122.078 E10.95793
G1 X133.13 Y121.647 E10.98004
G1 X133.856 Y121.081 E11.01065
G1 X134.628 Y120.58 E11.04126
G1 X135.032 Y120.354 E11.05666
G1 X135.597 Y120.054 E11.07794
G1 X136.428 Y119.658 E11.10855
G1 X137.281 Y119.339 E11.13884
G1 X137.655 Y119.217 E11.15193
G1 X138.542 Y118.969 E11.18256
G1 X139.139 Y118.849 E11.20282
G1 X139.585 Y118.772 E11.21787
G1 X140.498 Y118.654 E11.24849
G1 X141.085 Y118.621 E11.26804
G1 X141.505 Y118.609 E11.28202
G1 X142.867 Y118.658 E11.32735
G1 X144.204 Y118.794 E11.37204
G0 F6000 X142.907 Y118.26
G1 F1200 X144.032 Y118.373 E11.40965
G1 X144.252 Y118.397 E11.41701
G1 X145.203 Y118.512 E11.44887
G1 X147.677 Y118.739 E11.5315
G1 X149.265 Y118.835 E11.58442
G1 X150.452 Y118.93 E11.62402
G1 X151.112 Y119.009 E11.64613
G1 X151.313 Y119.039 E11.65289
G1 X152.055 Y119.176 E11.67799
G1 X152.282 Y119.226 E11.68572
G1 X153.206 Y119.472 E11.71752
G1 X153.474 Y119.556 E11.72686
G1 X154.372 Y119.881 E11.75863
G1 X154.576 Y119.965 E11.76596
G1 X155.265 Y120.276 E11.79111
G1 X155.453 Y120.369 E11.79808
G1 X156.275 Y120.821 E11.82928
G1 X156.895 Y121.225 E11.8539
G1 X157.455 Y121.618 E11.87665
G1 X158.199 Y122.189 E11.90784
G1 X158.863 Y122.793 E11.9377
G1 X159.094 Y123.021 E11.94849
G1 X159.771 Y123.753 E11.98166
G1 X159.923 Y123.933 E11.98949
G1 X160.477 Y124.646 E12.01952
G1 X160.601 Y124.82 E12.02663
G1 X160.998 Y125.418 E12.0505
G1 X161.105 Y125.591 E12.05727
G1 X161.762 Y126.821 E12.10365
G1 X161.985 Y127.311 E12.12156
G1 X162.337 Y128.18 E12.15274
G1 X162.686 Y129.372 E12.19405
G1 X162.836 Y130.016 E12.21604
G1 X163.01 Y130.937 E12.24722
G1 X163.12 Y132.249 E12.29101
G1 X163.153 Y133.768 E12.34154
G1 X163.153 Y146.492 E12.76474
G1 X163.19 Y149.101 E12.85153
G1 X163.297 Y151.623 E12.93549
G1 X163.474 Y154.117 E13.01865
G1 X163.722 Y156.615 E13.10214
G1 X164.039 Y159.097 E13.18536
G1 X164.59 Y162.507 E13.30025
G1 X164.66 Y162.891 E13.31323
G1 X164.788 Y163.82 E13.34442
G1 X164.837 Y164.757 E13.37563
G1 X164.805 Y165.694 E13.40681
G1 X164.694 Y166.625 E13.438
G1 X164.503 Y167.544 E13.46921
G1 X164.248 Y168.408 E13.49918
G1 X164.032 Y169.04 E13.52139
G1 X163.225 Y171.513 E13.60791
G1 X163.076 Y172.013 E13.62527
G1 X162.662 Y173.355 E13.67198
G1 X162.348 Y174.238 E13.70315
G1 X161.959 Y175.092 E13.73436
G1 X161.499 Y175.909 E13.76554
G1 X160.972 Y176.684 E13.79671
G1 X160.38 Y177.412 E13.82792
G1 X159.728 Y178.086 E13.85911
G1 X159.021 Y178.703 E13.89032
G1 X158.264 Y179.257 E13.92152
G1 X157.463 Y179.744 E13.9527
G1 X156.623 Y180.162 E13.98391
G1 X155.751 Y180.506 E14.01509
G1 X154.852 Y180.775 E14.0463
G1 X153.934 Y180.966 E14.07748
G1 X153.003 Y181.079 E14.10868
G1 X152.066 Y181.112 E14.13986
G1 X151.317 Y181.08 E14.1648
G1 X150.627 Y181.025 E14.18782
G1 X147.962 Y180.763 E14.27688
G1 X145.482 Y180.59 E14.35957
G1 X142.926 Y180.484 E14.44465
G1 X140.432 Y180.451 E14.52761
G1 X139.678 Y180.461 E14.55269
G1 X138.696 Y180.462 E14.58535
G1 X137.759 Y180.423 E14.61655
G1 X136.829 Y180.304 E14.64773
G1 X135.912 Y180.107 E14.67893
G1 X135.015 Y179.832 E14.71013
G1 X134.145 Y179.482 E14.74132
G1 X133.308 Y179.058 E14.77253
G1 X132.51 Y178.566 E14.80371
G1 X131.757 Y178.006 E14.83492
G1 X131.055 Y177.385 E14.86609
G1 X130.408 Y176.707 E14.89726
G1 X129.82 Y175.975 E14.92849
G1 X129.298 Y175.196 E14.95968
G1 X128.844 Y174.376 E14.99086
G1 X128.461 Y173.52 E15.02205
G1 X128.169 Y172.689 E15.05134
G1 X127.651 Y170.984 E15.11061
G1 X126.806 Y168.436 E15.1999
G1 X126.526 Y167.568 E15.23023
G1 X126.277 Y166.664 E15.26142
G1 X126.105 Y165.742 E15.29261
G1 X126.012 Y164.809 E15.3238
G1 X126 Y163.871 E15.355
G1 X126.067 Y162.935 E15.38621
G1 X126.155 Y162.323 E15.40677
G1 X126.394 Y160.936 E15.45359
G1 X126.796 Y158.363 E15.5402
G1 X127.112 Y155.88 E15.62345
G1 X127.362 Y153.355 E15.70785
G1 X127.538 Y150.842 E15.79163
G1 X127.643 Y148.345 E15.87476
G1 X127.678 Y145.796 E15.95954
G1 X127.68 Y132.824 E16.391
G1 X127.697 Y131.799 E16.42509
G1 X127.759 Y130.796 E16.45852
G1 X127.785 Y130.556 E16.46654
G1 X128.013 Y129.224 E16.51149
G1 X128.115 Y128.79 E16.52632
G1 X128.368 Y127.887 E16.55751
G1 X128.605 Y127.234 E16.58062
G1 X128.774 Y126.81 E16.5958
G1 X129.158 Y125.955 E16.62697
G1 X129.449 Y125.411 E16.64749
G1 X129.656 Y125.05 E16.66133
G1 X130.157 Y124.257 E16.69253
G1 X130.587 Y123.678 E16.71652
G1 X130.885 Y123.303 E16.73245
G1 X131.499 Y122.595 E16.76362
G1 X132.364 Y121.773 E16.80331
G1 X132.87 Y121.342 E16.82541
G1 X133.609 Y120.765 E16.8566
G1 X134.395 Y120.253 E16.8878
G1 X134.844 Y120.001 E16.90492
G1 X135.409 Y119.701 E16.9262
G1 X136.256 Y119.296 E16.95742
G1 X137.157 Y118.958 E16.98943
G1 X137.531 Y118.836 E17.00252
G1 X138.434 Y118.584 E17.0337
G1 X139.071 Y118.454 E17.05532
G1 X139.517 Y118.377 E17.07037
G1 X140.447 Y118.257 E17.10156
G1 X141.074 Y118.221 E17.12245
G1 X141.494 Y118.209 E17.13643
G1 X142.432 Y118.223 E17.16763
G1 X142.907 Y118.26 E17.18347
G0 F6000 X142.947 Y117.862
G1 F1200 X144.072 Y117.975 E17.22108
G1 X144.3 Y118 E17.22871
G1 X145.254 Y118.115 E17.26067
G1 X147.704 Y118.34 E17.3425
G1 X149.295 Y118.436 E17.39551
G1 X150.487 Y118.532 E17.43529
G1 X151.171 Y118.613 E17.45819
G1 X151.372 Y118.643 E17.46495
G1 X152.141 Y118.785 E17.49096
G1 X152.368 Y118.835 E17.49869
G1 X153.326 Y119.09 E17.53167
G1 X153.594 Y119.174 E17.54101
G1 X154.525 Y119.511 E17.57394
G1 X154.729 Y119.595 E17.58128
G1 X155.443 Y119.918 E17.60734
G1 X155.631 Y120.011 E17.61432
G1 X156.468 Y120.47 E17.64607
G1 X157.125 Y120.898 E17.67215
G1 X157.685 Y121.291 E17.6949
G1 X158.443 Y121.871 E17.72665
G1 X159.144 Y122.508 E17.75815
G1 X159.375 Y122.736 E17.76895
G1 X160.077 Y123.495 E17.80333
G1 X160.229 Y123.675 E17.81117
G1 X160.803 Y124.414 E17.84229
G1 X160.927 Y124.588 E17.8494
G1 X161.338 Y125.207 E17.87411
G1 X161.445 Y125.38 E17.88088
G1 X161.913 Y126.213 E17.91266
G1 X162.126 Y126.655 E17.92897
G1 X162.349 Y127.145 E17.94688
G1 X162.708 Y128.03 E17.97865
G1 X163.076 Y129.281 E18.02202
G1 X163.226 Y129.925 E18.04401
G1 X163.403 Y130.863 E18.07576
G1 X163.52 Y132.239 E18.12169
G1 X163.553 Y133.768 E18.17256
G1 X163.553 Y146.487 E18.59559
G1 X163.59 Y149.079 E18.68181
G1 X163.697 Y151.612 E18.76613
G1 X163.872 Y154.082 E18.84849
G1 X164.118 Y156.561 E18.93135
G1 X164.436 Y159.043 E19.01458
G1 X164.983 Y162.429 E19.12865
G1 X165.054 Y162.82 E19.14187
G1 X165.185 Y163.765 E19.1736
G1 X165.236 Y164.719 E19.20538
G1 X165.208 Y165.673 E19.23712
G1 X165.099 Y166.622 E19.26889
G1 X164.912 Y167.558 E19.30064
G1 X164.626 Y168.537 E19.33456
G1 X164.419 Y169.144 E19.35589
G1 X163.616 Y171.602 E19.4419
G1 X163.458 Y172.131 E19.46026
G1 X163.044 Y173.473 E19.50697
G1 X162.725 Y174.372 E19.5387
G1 X162.331 Y175.242 E19.57047
G1 X161.866 Y176.076 E19.60222
G1 X161.333 Y176.868 E19.63398
G1 X160.736 Y177.613 E19.66573
G1 X160.078 Y178.305 E19.69749
G1 X159.365 Y178.939 E19.72922
G1 X158.601 Y179.512 E19.76099
G1 X157.791 Y180.019 E19.79277
G1 X156.943 Y180.456 E19.8245
G1 X156.06 Y180.821 E19.85628
G1 X155.15 Y181.11 E19.88803
G1 X154.22 Y181.323 E19.91977
G1 X153.274 Y181.457 E19.95155
G1 X152.321 Y181.511 E19.98329
G1 X151.286 Y181.479 E20.01773
G1 X150.588 Y181.423 E20.04102
G1 X147.931 Y181.162 E20.12982
G1 X145.438 Y180.987 E20.21294
G1 X142.939 Y180.884 E20.29613
G1 X140.433 Y180.851 E20.37949
G1 X139.679 Y180.861 E20.40457
G1 X138.697 Y180.862 E20.43723
