;FLAVOR:Marlin
;TIME:17995
;Filament used: 12.844m
;Layer height: 0.2
;MINX:97.07
;MINY:70.085
;MINZ:0.2
;MAXX:202.93
;MAXY:229.915
;MAXZ:16
;Generated with Cura_SteamEngine 4.6.1
M140 S65
M105
M190 S65
M104 S221
M105
M109 S221
M82 ;absolute extrusion mode
M201 X500.00 Y500.00 Z100.00 E5000.00 ;Setup machine max acceleration
M203 X500.00 Y500.00 Z10.00 E50.00 ;Setup machine max feedrate
M204 P500.00 R1000.00 T500.00 ;Setup Print/Retract/Travel acceleration
M205 X8.00 Y8.00 Z0.40 E5.00 ;Setup Jerk
M220 S100 ;Reset Feedrate
M221 S100 ;Reset Flowrate

G28 ;Home

G92 E0 ;Reset Extruder
G1 Z2.0 F3000 ;Move Z Axis up
G1 X10.1 Y20 Z0.28 F5000.0 ;Move to start position
G1 X10.1 Y200.0 Z0.28 F1500.0 E15 ;Draw the first line
G1 X10.4 Y200.0 Z0.28 F5000.0 ;Move to side a little
G1 X10.4 Y20 Z0.28 F1500.0 E30 ;Draw the second line
G92 E0 ;Reset Extruder
G1 Z2.0 F3000 ;Move Z Axis up

G92 E0
G92 E0
G1 F2700 E-5
;LAYER_COUNT:80
;LAYER:0
M107
G0 F6000 X179.714 Y73.706 Z0.2
;TYPE:SKIRT
G1 F2700 E0
G1 F1200 X180.436 Y73.749 E0.02406
G1 X181.029 Y73.8 E0.04385
G1 X181.635 Y73.877 E0.06417
G1 X181.981 Y73.932 E0.07582
G1 X182.652 Y74.062 E0.09856
G1 X183.199 Y74.187 E0.11722
G1 X183.863 Y74.363 E0.14006
G1 X184.372 Y74.516 E0.15774
G1 X185.32 Y74.852 E0.19119
G1 X186.017 Y75.139 E0.21627
G1 X186.917 Y75.562 E0.24934
G1 X187.384 Y75.81 E0.26693
G1 X187.888 Y76.097 E0.28622
G1 X188.236 Y76.308 E0.29975
G1 X188.769 Y76.654 E0.32089
G1 X189.146 Y76.916 E0.33616
G1 X189.753 Y77.372 E0.36141
G1 X190.167 Y77.708 E0.37914
G1 X190.611 Y78.091 E0.39865
G1 X190.781 Y78.246 E0.4063
G1 X191.191 Y78.638 E0.42517
G1 X191.538 Y78.99 E0.44161
G1 X191.848 Y79.325 E0.45679
G1 X192.146 Y79.661 E0.47172
G1 X192.726 Y80.378 E0.5024
G1 X193.065 Y80.838 E0.5214
G1 X193.289 Y81.154 E0.53429
G1 X193.546 Y81.532 E0.54949
G1 X194.081 Y82.412 E0.58374
G1 X194.396 Y82.994 E0.60575
G1 X194.681 Y83.561 E0.62686
G1 X194.801 Y83.82 E0.63635
G1 X195.043 Y84.386 E0.65683
G1 X195.304 Y85.065 E0.68102
G1 X195.39 Y85.305 E0.6895
G1 X195.571 Y85.861 E0.70895
G1 X195.635 Y86.078 E0.71647
G1 X195.776 Y86.605 E0.73462
G1 X195.901 Y87.131 E0.7526
G1 X196.007 Y87.625 E0.7694
G1 X196.124 Y88.303 E0.79229
G1 X196.202 Y88.902 E0.81238
G1 X196.241 Y89.268 E0.82462
G1 X196.285 Y89.844 E0.84384
G1 X196.303 Y90.207 E0.85592
G1 X196.315 Y90.554 E0.86747
G1 X196.33 Y91.615 E0.90276
G1 X196.33 Y180.869 E3.87136
G1 X196.367 Y183.475 E3.95805
G1 X196.476 Y186.04 E4.04344
G1 X196.654 Y188.547 E4.12703
G1 X196.905 Y191.088 E4.21196
G1 X197.226 Y193.596 E4.29605
G1 X197.62 Y196.101 E4.38039
G1 X198.082 Y198.588 E4.46453
G1 X198.629 Y201.131 E4.55104
G1 X198.915 Y202.319 E4.59168
G1 X199.005 Y202.723 E4.60545
G1 X199.11 Y203.25 E4.62332
G1 X199.239 Y204.144 E4.65337
G1 X199.284 Y204.852 E4.67696
G1 X199.33 Y206.601 E4.73515
G1 X199.329 Y212.53 E4.93235
G1 X199.319 Y213.247 E4.9562
G1 X199.266 Y214.149 E4.98626
G1 X199.134 Y215.042 E5.01628
G1 X198.924 Y215.92 E5.04631
G1 X198.482 Y217.155 E5.08993
G1 X197.262 Y219.98 E5.19228
G1 X196.868 Y220.793 E5.22233
G1 X196.403 Y221.568 E5.25239
G1 X195.735 Y222.467 E5.28964
G1 X195.601 Y222.628 E5.29661
G1 X194.993 Y223.296 E5.32665
G1 X194.328 Y223.907 E5.35669
G1 X193.612 Y224.458 E5.38674
G1 X192.85 Y224.943 E5.41678
G1 X192.049 Y225.358 E5.44678
G1 X191.213 Y225.701 E5.47684
G1 X190.351 Y225.969 E5.50686
G1 X189.468 Y226.159 E5.5369
G1 X188.175 Y226.295 E5.58015
G1 X187.904 Y226.306 E5.58917
G1 X187.49 Y226.314 E5.60294
G1 X113.984 Y226.315 E8.04776
G1 X112.81 Y226.313 E8.08681
G1 X112.112 Y226.304 E8.11002
G1 X111.211 Y226.253 E8.14004
G1 X110.317 Y226.121 E8.1701
G1 X109.439 Y225.912 E8.20011
G1 X108.582 Y225.625 E8.23017
G1 X107.755 Y225.264 E8.26019
G1 X106.962 Y224.831 E8.29024
G1 X106.211 Y224.33 E8.32026
G1 X105.507 Y223.764 E8.35031
G1 X104.974 Y223.261 E8.37468
G1 X104.359 Y222.6 E8.40471
G1 X103.804 Y221.887 E8.43477
G1 X103.315 Y221.128 E8.4648
G1 X102.747 Y220 E8.5068
G1 X102.211 Y218.747 E8.55213
G1 X101.533 Y217.195 E8.60846
G1 X101.208 Y216.352 E8.63851
G1 X100.96 Y215.484 E8.66853
G1 X100.789 Y214.597 E8.69858
G1 X100.684 Y213.413 E8.73811
G1 X100.67 Y212.773 E8.7594
G1 X100.672 Y206.399 E8.97141
G1 X100.698 Y205.085 E9.01512
G1 X100.782 Y203.961 E9.05261
G1 X100.809 Y203.755 E9.05952
G1 X100.967 Y202.865 E9.08958
G1 X101.232 Y201.679 E9.13
G1 X101.487 Y200.612 E9.16649
G1 X102.01 Y198.119 E9.25121
G1 X102.459 Y195.633 E9.33523
G1 X102.84 Y193.112 E9.42003
G1 X103.149 Y190.591 E9.50451
G1 X103.385 Y188.078 E9.58846
G1 X103.551 Y185.538 E9.67312
G1 X103.647 Y182.966 E9.75873
G1 X103.67 Y180.936 E9.82625
G1 X103.671 Y160.54 E10.50462
G1 X103.681 Y159.842 E10.52784
G1 X103.748 Y158.812 E10.56217
G1 X103.837 Y158.061 E10.58732
G1 X104.709 Y151.614 E10.8037
G1 X105.021 Y149.035 E10.89011
G1 X105.257 Y146.484 E10.97532
G1 X105.418 Y143.98 E11.05877
G1 X105.51 Y141.375 E11.14547
G1 X105.53 Y139.503 E11.20774
G1 X105.531 Y91.469 E12.80535
G1 X105.547 Y90.459 E12.83895
G1 X105.594 Y89.635 E12.8664
G1 X105.683 Y88.719 E12.89701
G1 X105.855 Y87.598 E12.93473
G1 X105.946 Y87.167 E12.94938
G1 X106.082 Y86.603 E12.96868
G1 X106.152 Y86.345 E12.97757
G1 X106.33 Y85.758 E12.99797
G1 X106.539 Y85.138 E13.01973
G1 X106.796 Y84.457 E13.04394
G1 X107.002 Y83.965 E13.06168
G1 X107.362 Y83.197 E13.08989
G1 X107.659 Y82.626 E13.1113
G1 X108.117 Y81.834 E13.14173
G1 X108.423 Y81.356 E13.16061
G1 X108.817 Y80.785 E13.18368
G1 X109.011 Y80.523 E13.19452
G1 X109.308 Y80.141 E13.21062
G1 X109.522 Y79.879 E13.22187
G1 X110.048 Y79.283 E13.24831
G1 X110.524 Y78.785 E13.27122
G1 X110.957 Y78.359 E13.29142
G1 X111.209 Y78.125 E13.30286
G1 X112.051 Y77.423 E13.33932
G1 X112.677 Y76.956 E13.3653
G1 X112.995 Y76.728 E13.37831
G1 X113.325 Y76.501 E13.39164
G1 X114.25 Y75.935 E13.4277
G1 X114.793 Y75.641 E13.44824
G1 X115.232 Y75.417 E13.46463
G1 X115.436 Y75.319 E13.47216
G1 X116.089 Y75.033 E13.49587
G1 X116.565 Y74.844 E13.51291
G1 X116.901 Y74.717 E13.52485
G1 X117.17 Y74.621 E13.53435
G1 X117.902 Y74.391 E13.55987
G1 X118.464 Y74.237 E13.57925
G1 X118.953 Y74.116 E13.59601
G1 X119.156 Y74.071 E13.60292
G1 X119.773 Y73.954 E13.62381
G1 X120.223 Y73.883 E13.63896
G1 X120.809 Y73.808 E13.65861
G1 X121.345 Y73.755 E13.67653
G1 X122.157 Y73.707 E13.70358
G1 X123.412 Y73.685 E13.74533
G1 X178.898 Y73.685 E15.5908
G1 X179.207 Y73.688 E15.60108
G1 X179.714 Y73.706 E15.61795
G0 F6000 X179.738 Y73.307
G1 F1200 X180.46 Y73.35 E15.64201
G1 X181.068 Y73.402 E15.66231
G1 X181.698 Y73.482 E15.68343
G1 X182.044 Y73.537 E15.69508
G1 X182.741 Y73.672 E15.71869
G1 X183.288 Y73.797 E15.73736
G1 X183.978 Y73.98 E15.7611
G1 X184.487 Y74.133 E15.77878
G1 X185.472 Y74.482 E15.81353
G1 X186.169 Y74.769 E15.8386
G1 X187.105 Y75.209 E15.873
G1 X187.572 Y75.457 E15.89059
G1 X188.096 Y75.755 E15.91064
G1 X188.444 Y75.966 E15.92418
G1 X188.997 Y76.326 E15.94612
G1 X189.374 Y76.588 E15.96139
G1 X190.005 Y77.062 E15.98764
G1 X190.419 Y77.398 E16.00537
G1 X190.881 Y77.795 E16.02564
G1 X191.051 Y77.95 E16.03329
G1 X191.471 Y78.352 E16.05262
G1 X191.825 Y78.712 E16.06942
G1 X192.147 Y79.06 E16.08519
G1 X192.445 Y79.396 E16.10012
G1 X193.048 Y80.14 E16.13198
G1 X193.387 Y80.6 E16.15098
G1 X193.62 Y80.929 E16.16439
G1 X193.877 Y81.307 E16.17959
G1 X194.433 Y82.221 E16.21518
G1 X194.748 Y82.803 E16.23719
G1 X195.044 Y83.393 E16.25914
G1 X195.164 Y83.652 E16.26863
G1 X195.415 Y84.24 E16.2899
G1 X195.681 Y84.93 E16.31449
G1 X195.767 Y85.17 E16.32297
G1 X195.955 Y85.747 E16.34316
G1 X196.019 Y85.964 E16.35068
G1 X196.165 Y86.512 E16.36955
G1 X196.399 Y87.544 E16.40474
G1 X196.52 Y88.249 E16.42853
G1 X196.599 Y88.86 E16.44902
G1 X196.638 Y89.226 E16.46127
G1 X196.685 Y89.824 E16.48122
G1 X196.703 Y90.187 E16.4933
G1 X196.715 Y90.548 E16.50532
G1 X196.73 Y91.615 E16.54081
G1 X196.73 Y180.863 E19.50921
G1 X196.767 Y183.488 E19.59653
G1 X196.874 Y185.996 E19.68002
G1 X197.052 Y188.516 E19.76404
G1 X197.301 Y191.031 E19.8481
G1 X197.62 Y193.52 E19.93156
G1 X198.021 Y196.072 E20.01749
G1 X198.473 Y198.503 E20.09973
G1 X199.017 Y201.031 E20.18573
G1 X199.305 Y202.232 E20.22681
G1 X199.395 Y202.636 E20.24058
G1 X199.503 Y203.175 E20.25886
G1 X199.635 Y204.086 E20.28948
G1 X199.684 Y204.841 E20.31464
G1 X199.73 Y206.601 E20.3732
G1 X199.729 Y212.536 E20.5706
G1 X199.719 Y213.253 E20.59445
G1 X199.666 Y214.172 E20.62506
G1 X199.534 Y215.083 E20.65568
G1 X199.323 Y215.979 E20.6863
G1 X199.035 Y216.854 E20.71694
G1 X198.849 Y217.313 E20.73341
G1 X197.629 Y220.139 E20.83579
G1 X197.228 Y220.967 E20.86639
G1 X196.757 Y221.758 E20.897
G1 X196.042 Y222.723 E20.93695
G1 X195.908 Y222.884 E20.94392
G1 X195.289 Y223.565 E20.97453
G1 X194.613 Y224.19 E21.00515
G1 X193.886 Y224.755 E21.03577
G1 X193.112 Y225.253 E21.06638
G1 X192.298 Y225.683 E21.097
G1 X191.449 Y226.041 E21.12765
G1 X190.573 Y226.323 E21.15826
G1 X189.676 Y226.529 E21.18887
G1 X188.764 Y226.655 E21.21949
G1 X188.191 Y226.694 E21.23859
G1 X187.92 Y226.705 E21.24761
G1 X187.49 Y226.714 E21.26192
G1 X113.984 Y226.715 E23.70674
G1 X112.805 Y226.713 E23.74595
G1 X112.107 Y226.704 E23.76917
G1 X111.188 Y226.652 E23.79978
G1 X110.277 Y226.521 E23.83039
G1 X109.381 Y226.311 E23.861
G1 X108.506 Y226.024 E23.89163
G1 X107.659 Y225.662 E23.92227
G1 X106.847 Y225.228 E23.95289
G1 X106.076 Y224.726 E23.98349
G1 X105.351 Y224.158 E24.01412
G1 X104.812 Y223.664 E24.03844
G1 X104.693 Y223.547 E24.04399
G1 X104.066 Y222.873 E24.07461
G1 X103.499 Y222.148 E24.10522
G1 X102.997 Y221.376 E24.13585
G1 X102.379 Y220.157 E24.18131
G1 X101.843 Y218.904 E24.22663
G1 X101.166 Y217.355 E24.28286
G1 X100.835 Y216.496 E24.31348
G1 X100.579 Y215.612 E24.34409
G1 X100.401 Y214.709 E24.3747
G1 X100.285 Y213.425 E24.41758
G1 X100.27 Y212.773 E24.43927
G1 X100.272 Y206.391 E24.65154
G1 X100.298 Y205.077 E24.69525
G1 X100.386 Y203.909 E24.73421
G1 X100.413 Y203.703 E24.74112
G1 X100.576 Y202.778 E24.77236
G1 X100.843 Y201.586 E24.81299
G1 X101.092 Y200.544 E24.84862
G1 X101.618 Y198.037 E24.93382
G1 X102.063 Y195.573 E25.0171
G1 X102.446 Y193.04 E25.1023
G1 X102.748 Y190.576 E25.18487
G1 X102.988 Y188.012 E25.27052
G1 X103.151 Y185.532 E25.35318
G1 X103.247 Y182.946 E25.43925
G1 X103.27 Y180.936 E25.50611
G1 X103.271 Y160.534 E26.18468
G1 X103.281 Y159.836 E26.2079
G1 X103.351 Y158.766 E26.24357
G1 X103.441 Y158.007 E26.26899
G1 X104.311 Y151.58 E26.4847
G1 X104.624 Y148.987 E26.57157
G1 X104.858 Y146.457 E26.65608
G1 X105.019 Y143.939 E26.74
G1 X105.109 Y141.398 E26.82456
G1 X105.13 Y139.503 E26.88759
G1 X105.131 Y91.463 E28.48541
G1 X105.147 Y90.453 E28.51901
G1 X105.196 Y89.596 E28.54756
G1 X105.285 Y88.68 E28.57817
G1 X105.464 Y87.515 E28.61737
G1 X105.555 Y87.084 E28.63202
G1 X105.696 Y86.498 E28.65207
G1 X105.766 Y86.24 E28.66096
G1 X105.951 Y85.63 E28.68216
G1 X106.16 Y85.01 E28.70392
G1 X106.427 Y84.302 E28.72909
G1 X106.633 Y83.81 E28.74683
G1 X107.007 Y83.013 E28.77611
G1 X107.304 Y82.442 E28.79752
G1 X107.781 Y81.618 E28.82919
G1 X108.087 Y81.14 E28.84806
G1 X108.495 Y80.547 E28.872
G1 X108.689 Y80.285 E28.88285
G1 X108.998 Y79.888 E28.89958
G1 X109.212 Y79.626 E28.91083
G1 X109.759 Y79.007 E28.93831
G1 X110.235 Y78.509 E28.96122
G1 X110.685 Y78.065 E28.98225
G1 X110.937 Y77.831 E28.99368
G1 X111.812 Y77.103 E29.03154
G1 X112.438 Y76.636 E29.05752
G1 X112.769 Y76.399 E29.07106
G1 X113.099 Y76.172 E29.08438
G1 X114.059 Y75.584 E29.12182
G1 X114.602 Y75.29 E29.14236
G1 X115.059 Y75.056 E29.15944
G1 X115.263 Y74.958 E29.16696
G1 X115.941 Y74.661 E29.19158
G1 X116.417 Y74.472 E29.20862
G1 X117.035 Y74.245 E29.23051
G1 X117.797 Y74.005 E29.25709
G1 X118.359 Y73.851 E29.27647
G1 X118.866 Y73.725 E29.29384
G1 X119.069 Y73.68 E29.30076
G1 X119.711 Y73.559 E29.32249
G1 X120.161 Y73.488 E29.33764
G1 X120.77 Y73.409 E29.35807
G1 X121.306 Y73.356 E29.37598
G1 X122.15 Y73.307 E29.4041
G1 X123.412 Y73.285 E29.44608
G1 X178.902 Y73.285 E31.29168
G1 X179.211 Y73.288 E31.30196
G1 X179.738 Y73.307 E31.3195
G0 F6000 X179.762 Y72.907
G1 F1200 X180.484 Y72.95 E31.34356
G1 X181.107 Y73.003 E31.36435
G1 X181.761 Y73.087 E31.38628
G1 X182.107 Y73.142 E31.39794
G1 X182.831 Y73.282 E31.42246
G1 X183.378 Y73.407 E31.44113
G1 X184.094 Y73.597 E31.46576
G1 X184.603 Y73.75 E31.48344
G1 X185.624 Y74.113 E31.51948
G1 X186.321 Y74.4 E31.54455
G1 X187.292 Y74.856 E31.58023
G1 X187.759 Y75.104 E31.59782
G1 X188.303 Y75.413 E31.61863
G1 X188.651 Y75.624 E31.63216
G1 X189.225 Y75.997 E31.65493
G1 X189.602 Y76.259 E31.6702
G1 X190.257 Y76.751 E31.69745
G1 X190.671 Y77.087 E31.71518
G1 X191.15 Y77.499 E31.7362
G1 X191.32 Y77.654 E31.74385
G1 X191.75 Y78.066 E31.76366
G1 X192.112 Y78.433 E31.7808
G1 X192.447 Y78.794 E31.79718
G1 X192.745 Y79.13 E31.81212
G1 X193.37 Y79.903 E31.84518
G1 X193.709 Y80.363 E31.86419
G1 X193.951 Y80.704 E31.87809
G1 X194.208 Y81.082 E31.8933
G1 X194.785 Y82.031 E31.93024
G1 X195.1 Y82.613 E31.95225
G1 X195.407 Y83.225 E31.97502
G1 X195.527 Y83.484 E31.98452
G1 X195.787 Y84.094 E32.00657
G1 X196.057 Y84.795 E32.03156
G1 X196.143 Y85.035 E32.04003
G1 X196.339 Y85.634 E32.061
G1 X196.403 Y85.851 E32.06852
G1 X196.554 Y86.42 E32.0881
G1 X196.791 Y87.463 E32.12368
G1 X196.917 Y88.194 E32.14835
G1 X196.957 Y88.485 E32.15812
G1 X196.997 Y88.817 E32.16924
G1 X197.036 Y89.183 E32.18148
G1 X197.085 Y89.804 E32.2022
G1 X197.103 Y90.167 E32.21429
G1 X197.115 Y90.541 E32.22673
G1 X197.13 Y91.615 E32.26246
G1 X197.13 Y180.857 E35.23066
G1 X197.167 Y183.465 E35.31741
G1 X197.274 Y185.986 E35.40134
G1 X197.451 Y188.481 E35.48453
G1 X197.699 Y190.981 E35.56809
G1 X198.018 Y193.474 E35.65168
G1 X198.409 Y195.967 E35.73561
G1 X198.872 Y198.457 E35.81985
G1 X199.405 Y200.931 E35.90402
G1 X199.696 Y202.145 E35.94554
G1 X199.786 Y202.549 E35.95931
G1 X199.896 Y203.101 E35.97803
G1 X200.031 Y204.029 E36.00922
G1 X200.083 Y204.829 E36.03589
G1 X200.13 Y206.601 E36.09484
G1 X200.129 Y212.541 E36.29241
G1 X200.119 Y213.258 E36.31626
G1 X200.066 Y214.195 E36.34747
G1 X199.933 Y215.123 E36.37865
G1 X199.722 Y216.037 E36.40985
G1 X199.434 Y216.929 E36.44103
G1 X199.216 Y217.472 E36.46049
G1 X197.996 Y220.297 E36.56284
G1 X197.588 Y221.142 E36.59405
G1 X197.11 Y221.949 E36.62524
G1 X196.35 Y222.979 E36.66782
G1 X196.216 Y223.14 E36.67478
G1 X195.586 Y223.834 E36.70596
G1 X194.899 Y224.473 E36.73717
G1 X194.16 Y225.05 E36.76835
G1 X193.374 Y225.563 E36.79957
G1 X192.548 Y226.007 E36.83076
G1 X191.687 Y226.379 E36.86195
G1 X190.797 Y226.676 E36.89316
G1 X189.886 Y226.896 E36.92433
G1 X188.959 Y227.038 E36.95552
G1 X188.207 Y227.094 E36.9806
G1 X187.936 Y227.105 E36.98962
G1 X187.49 Y227.114 E37.00446
G1 X113.984 Y227.115 E39.44928
G1 X112.8 Y227.113 E39.48866
G1 X112.102 Y227.104 E39.51188
G1 X111.166 Y227.052 E39.54306
G1 X110.237 Y226.92 E39.57427
G1 X109.323 Y226.71 E39.60546
G1 X108.43 Y226.423 E39.63666
G1 X107.565 Y226.06 E39.66786
G1 X106.734 Y225.626 E39.69904
G1 X105.943 Y225.122 E39.73023
G1 X105.198 Y224.552 E39.76143
G1 X104.532 Y223.949 E39.79131
G1 X104.413 Y223.832 E39.79687
G1 X103.773 Y223.146 E39.82807
G1 X103.193 Y222.409 E39.85926
G1 X102.679 Y221.625 E39.89044
G1 X102.233 Y220.8 E39.92164
G1 X102.011 Y220.314 E39.93941
G1 X101.475 Y219.061 E39.98473
G1 X100.8 Y217.515 E40.04084
G1 X100.461 Y216.641 E40.07202
G1 X100.199 Y215.74 E40.10323
G1 X100.014 Y214.821 E40.13441
G1 X99.885 Y213.436 E40.18067
G1 X99.87 Y212.773 E40.20273
G1 X99.872 Y206.383 E40.41526
G1 X99.898 Y205.069 E40.45898
G1 X99.989 Y203.857 E40.4994
G1 X100.016 Y203.651 E40.50631
G1 X100.186 Y202.691 E40.53874
G1 X100.454 Y201.493 E40.57957
G1 X100.706 Y200.441 E40.61555
G1 X101.219 Y197.99 E40.69883
G1 X101.674 Y195.474 E40.78387
G1 X102.047 Y193.008 E40.86683
G1 X102.351 Y190.522 E40.95013
G1 X102.589 Y187.985 E41.03488
G1 X102.753 Y185.492 E41.11798
G1 X102.847 Y182.965 E41.20208
G1 X102.87 Y180.936 E41.26957
G1 X102.871 Y160.528 E41.94834
G1 X102.881 Y159.83 E41.97156
G1 X102.953 Y158.72 E42.00856
G1 X103.044 Y157.953 E42.03425
G1 X103.925 Y151.441 E42.25281
G1 X104.228 Y148.935 E42.33677
G1 X104.459 Y146.434 E42.42031
G1 X104.619 Y143.933 E42.50366
G1 X104.71 Y141.379 E42.58866
G1 X104.73 Y139.503 E42.65106
